src/images/svg/symbols/markets-stocks-and-indices/american-stocks/stocks-american-airlines-group-inc.svg

<svg width="32" height="32" viewBox="0 0 32 32" fill="none" xmlns="http://www.w3.org/2000/svg">
<path d="M0 16C0 7.16344 7.16344 0 16 0V0C24.8366 0 32 7.16344 32 16V16C32 24.8366 24.8366 32 16 32V32C7.16344 32 0 24.8366 0 16V16Z" fill="#F2F3F4"/>
<path d="M6 6.14866C8.17312 6.14866 9.58114 5.81498 11.1693 7.65372L16.3609 14.0677H12.5089C11.9555 14.0841 11.4092 13.9403 10.9357 13.6536C10.4621 13.3669 10.0814 12.9495 9.83943 12.4516L6 6.14866Z" fill="url(#paint0_linear_12856_34247)"/>
<path d="M17.7982 15.9297L26.0006 25.8724H20.2512C19.441 25.8659 18.6489 25.6324 17.9647 25.1984C17.2805 24.7644 16.7316 24.1474 16.3804 23.4173L13.9141 19.2225L14.6268 17.0173L17.7982 15.9297Z" fill="url(#paint1_linear_12856_34247)"/>
<path d="M14.5264 20.292C14.8992 18.6766 17.7034 17.3405 19.1645 17.5576L17.6985 15.7559L15.2748 16.2836L13.6895 18.8414L14.5264 20.292Z" fill="url(#paint2_linear_12856_34247)"/>
<path d="M14.4674 20.2186L12.5728 17.0186C12.0213 16.0246 12.519 14.8434 14.5386 14.6263C16.5581 14.4092 20.0694 14.0679 21.0628 16.1272C18.3291 15.8466 14.2586 16.6773 14.4674 20.2186Z" fill="url(#paint3_linear_12856_34247)"/>
<defs>
<linearGradient id="paint0_linear_12856_34247" x1="11.1818" y1="6.26873" x2="11.1818" y2="13.9741" gradientUnits="userSpaceOnUse">
<stop stop-color="#4FC8ED"/>
<stop offset="1" stop-color="#10528A"/>
</linearGradient>
<linearGradient id="paint1_linear_12856_34247" x1="13.9141" y1="20.9028" x2="25.9992" y2="20.9028" gradientUnits="userSpaceOnUse">
<stop stop-color="#EE3324"/>
<stop offset="1" stop-color="#A02121"/>
</linearGradient>
<linearGradient id="paint2_linear_12856_34247" x1="132.426" y1="71.7315" x2="87.7921" y2="119.486" gradientUnits="userSpaceOnUse">
<stop stop-color="#EE3324"/>
<stop offset="1" stop-color="#A02121"/>
</linearGradient>
<linearGradient id="paint3_linear_12856_34247" x1="14.3857" y1="17.3642" x2="20.8394" y2="17.2399" gradientUnits="userSpaceOnUse">
<stop stop-color="#E6EAEF"/>
<stop offset="1" stop-color="#95AAB1"/>
</linearGradient>
</defs>
</svg>

<svg width="32" height="32" fill="none" xmlns="http://www.w3.org/2000/svg"><path d="M0 16C0 7.163 7.163 0 16 0s16 7.163 16 16-7.163 16-16 16S0 24.837 0 16Z" fill="#F2F3F4"/><path d="M6 6.149c2.173 0 3.581-.334 5.17 1.505l5.19 6.414H12.51a2.873 2.873 0 0 1-2.67-1.616L6 6.149Z" fill="url(#a)"/><path d="m17.798 15.93 8.203 9.942h-5.75a4.334 4.334 0 0 1-3.87-2.455l-2.467-4.195.713-2.205 3.171-1.087Z" fill="url(#b)"/><path d="M14.526 20.292c.373-1.615 3.177-2.952 4.639-2.734l-1.466-1.802-2.424.528-1.585 2.557.836 1.451Z" fill="url(#c)"/><path d="m14.467 20.219-1.894-3.2c-.552-.994-.054-2.176 1.966-2.393 2.02-.217 5.53-.558 6.524 1.501-2.734-.28-6.804.55-6.596 4.092Z" fill="url(#d)"/><defs><linearGradient id="a" x1="11.182" y1="6.269" x2="11.182" y2="13.974" gradientUnits="userSpaceOnUse"><stop stop-color="#4FC8ED"/><stop offset="1" stop-color="#10528A"/></linearGradient><linearGradient id="b" x1="13.914" y1="20.903" x2="25.999" y2="20.903" gradientUnits="userSpaceOnUse"><stop stop-color="#EE3324"/><stop offset="1" stop-color="#A02121"/></linearGradient><linearGradient id="c" x1="132.426" y1="71.731" x2="87.792" y2="119.486" gradientUnits="userSpaceOnUse"><stop stop-color="#EE3324"/><stop offset="1" stop-color="#A02121"/></linearGradient><linearGradient id="d" x1="14.386" y1="17.364" x2="20.839" y2="17.24" gradientUnits="userSpaceOnUse"><stop stop-color="#E6EAEF"/><stop offset="1" stop-color="#95AAB1"/></linearGradient></defs></svg>
